X:1
T: Songs of the Harpist
N:
C:O'Carolan
S:
A:
O:
R:
M:3/4
K:Am
I:speed 150
%W: A1
% voice 1 (1 lines, 34 notes)
K:Am
M:3/4
L:1/16
c3 B |A4 c3 d e4 |A4 c3 d e4 |d3 e d2 c2 B2 A2 |G4/3 A4/3 B4/3 |G4 E4 c6 |B2 A4 d6 |c2 B4 c2 e2 E4 |G4 A8 |c3 B
%W: A2
% voice 1 (1 lines, 34 notes)
A4 c3 d |e4 A4 c3 d |e4 d3 e d2 c2 |B2 A2 G4/3 A4/3 |B4/3 G4 E4 |g6 f2 e4 |a6 g2 e2 d2 |c2 e2 d2 c2 B2 c2 |A8 e4 |
%W: B1
% voice 1 (1 lines, 32 notes)
e4 a3 b c'4 |e4 a3 b c'4 |c'2 b2 a2 g2 a2 b2 |c'4 e4 e4 |f4 a2 f2 e2 d2 |e4 g2 e2 d2 c2 |d4 e4 g4 |a8 a4 |
%W: B2
% voice 1 (1 lines, 30 notes)
a2 g2 e2 g2 a4 |g2 e2 d2 e2 g4 |e2 d2 c2 d2 e2 c2 |d4 B4 G4 |c6 B2 A4 |d6 c2 B4 |c2 e2 E4 G4 |A8 ||
